X: 26075
T: McDermott's
R: hornpipe
M: 4/4
K: Dmajor
{a}fe|:dcdA FABA|GFGE CDEF|EFGA Bdcd|(3efe (3dcB Ag{a}fe|
dcdA FABA|GFGE CDEF|EFGA Bdcd|1 (3efe dc d2fe:|2 (3efe dc d2AG||
[FA]Ad2 [FA]AdA|FAdB GBFA|E=c~c2 Ec~c2|E=c~c2 (3ABc AG|
FAdA FAdA|FAdB GBFA|E2ed cABc|1 d2f2 {de}d2AG:|2 d2f2 d2||

